X:1
T:Title
L:1/8
M:3/4
K:Bb
V:1 treble nm="Grand Piano"
V:1
 z2 z2 G2 | G3 ^F A2 | G4 G2 | G3 ^F A2 | G6 | A3 G A2 | B3 A G2 | ^F3 G A2 | G4 G2 | G3 ^F A2 | %10
 G4 G2 | G3 ^F A2 | G6 | A3 G A2 | B3 A G2 | ^F3 G A2 | G4 G2 | D4 D2 | E4 ED | C4 A2 | A4 AB | %21
 c3 B A2 | B3 A G2 | ^F3 G A2 | G4 G2 | D4 D2 | E4 ED | C4 A2 | A4 AB | c3 B A2 | B3 A G2 | %31
 ^F3 G A2 | G4 z2 |] %33

